packages/katcn/src/icons/svg/female.svg

<svg width="24" height="25" viewBox="0 0 24 25" fill="none" xmlns="http://www.w3.org/2000/svg">
<path d="M16.5 9.77607C16.5 9.67607 16.5 9.57607 16.4 9.57607C16 8.57607 15.4 7.97607 14.6 7.47607C15.1 6.87607 15.4 6.17607 15.4 5.37607C15.4 3.47607 13.9 1.97607 12 1.97607C10.1 1.97607 8.6 3.47607 8.6 5.37607C8.6 6.17607 8.9 6.87607 9.4 7.47607C8.6 7.97607 8 8.57607 7.6 9.57607C7.6 9.67607 7.5 9.67607 7.5 9.77607L6 17.3761C5.9 17.8761 6.2 18.4761 6.8 18.5761C7.3 18.6761 7.9 18.3761 8 17.7761L9.5 10.3761C10 9.27607 10.7 8.87607 12 8.87607C13.3 8.87607 14 9.27607 14.5 10.3761L16 17.7761C16.1 18.2761 16.5 18.5761 17 18.5761C17.1 18.5761 17.1 18.5761 17.2 18.5761C17.7 18.4761 18.1 17.9761 18 17.3761L16.5 9.77607ZM12 3.97607C12.8 3.97607 13.4 4.57607 13.4 5.37607C13.4 6.17607 12.8 6.67607 12 6.67607C11.2 6.67607 10.6 6.07607 10.6 5.27607C10.6 4.47607 11.2 3.97607 12 3.97607Z" fill="black"/>
<path d="M14 18.3761C13.4 18.3761 13 18.7761 13 19.3761V21.1761C13 21.5761 12.6 21.9761 12 21.9761C11.4 21.9761 11 21.5761 11 21.1761V19.3761C11 18.7761 10.6 18.3761 10 18.3761C9.4 18.3761 9 18.7761 9 19.3761V21.1761C9 22.6761 10.3 23.9761 12 23.9761C13.7 23.9761 15 22.6761 15 21.1761V19.3761C15 18.7761 14.6 18.3761 14 18.3761Z" fill="black"/>
</svg>

<svg xmlns="http://www.w3.org/2000/svg" fill="none" viewBox="0 0 24 25"><path fill="#000" d="M16.5 9.776c0-.1 0-.2-.1-.2-.4-1-1-1.6-1.8-2.1.5-.6.8-1.3.8-2.1 0-1.9-1.5-3.4-3.4-3.4s-3.4 1.5-3.4 3.4c0 .8.3 1.5.8 2.1-.8.5-1.4 1.1-1.8 2.1 0 .1-.1.1-.1.2l-1.5 7.6c-.1.5.2 1.1.8 1.2.5.1 1.1-.2 1.2-.8l1.5-7.4c.5-1.1 1.2-1.5 2.5-1.5s2 .4 2.5 1.5l1.5 7.4c.1.5.5.8 1 .8h.2c.5-.1.9-.6.8-1.2zm-4.5-5.8c.8 0 1.4.6 1.4 1.4s-.6 1.3-1.4 1.3-1.4-.6-1.4-1.4.6-1.3 1.4-1.3"/><path fill="#000" d="M14 18.376c-.6 0-1 .4-1 1v1.8c0 .4-.4.8-1 .8s-1-.4-1-.8v-1.8c0-.6-.4-1-1-1s-1 .4-1 1v1.8c0 1.5 1.3 2.8 3 2.8s3-1.3 3-2.8v-1.8c0-.6-.4-1-1-1"/></svg>
